X:1
T:The Well-Tempered Clavier Part II Fuga IX
T:BWV 878
T:J. S. Bach
%%score { ( 1 4 ) | ( 2 3 ) }
L:1/8
Q:1/4=184
M:4/2
K:E
V:1 treble nm="Harp"
V:4 treble 
V:2 bass 
V:3 bass 
V:1
"^Presto" z16 | z16 | z16 | E8 F4 A4 | z8 B8 | c4 e4 d4 c4 | B8- B2 AG A4- | A4 G4 F4 E4 | %8
 D4 z4 z8 | z16 | E8 F4 A4 | G4 F4 ^E2 F2 G2 A2 | B2 F2 B8 A4 | G8- G6 AB | c2 ^B2 c2 d2 B2 c4 B2 | %15
 c8 z8 | B8 c4 e4 | d4 c4 B4 c4 | F2 D2 G4- G2 F^E _G4- | G2 ED E2 FE D2 B2 ^E4- | %20
 E2 F4 ^E2 c4 B4- | B2 A4 G2- G2 F4 ^E2 | F8 G2 A2 B4- | B2 A2 G4 F4 =E2 F2 | G6 A2 G2 F2 E4 | %25
 z8 z4 G4 | A2 c2 B2 A2 G4 ^A4 | B8- B6 ^A2 | B2 G2 A2 B2 c2 ^d2 e4- | e6 d2 e2 B4 ^A2 | %30
 B4 z2 f2 B2 G2 A2 B2 | c4 B4 A4 G4 | F2 e2 d2 c2 B4 ^A4- | A2 G^^F G4- G6 F2 | %34
 G4 z2 B2 G2 E2 F2 G2 | A2 B2 c2 d2 eB e4 d2- | d2 cB c4 B2 z2 e4 | f4 a4 g4 f4 | e4 d4 c4 B4- | %39
 B2 c2 B2 A2 G4 z4 | z4 e4 d4 c4 | B4 A4 GFGA B2 [CA]2 | G4 F4 !fermata!E8 |] %43
V:2
 E,6 z2 F,4 A,4 | z8 B,8 | C4 E4 D4 C4 | B,6 B,2 A,2 B,2 C2 D2 | EA, E4 D2 E4 G,2 F,2 | %5
 G,4 E,4 F,8- | F,2 B,,2 E,4- E,2 C,2 F,4- | F,2 E,F, G,2 A,2 B,F, B,4 ^A,2 | B,4 z4 E,8 | %9
 F,4 A,4 G,4 F,4 | E,2 A,4 G,2 F,2 E,D, E,2 F,2 | G,2 A,2 B,F, A,2 G,4 F,4- | %12
 F,4 E,4 D,2 ^E,2 F,4 | C,2 D,2 E,2 F,2 G,2 D,2 G,4- | %14
 G,4 F,4- F,2 E,2 E,/4D,/4E,/4D,/4E,/4D,/4E,/4D,/4 E,/4D,/4E,/4D,/4E,/4D,/4E,/4D,/4 | %15
 C,2 G,2 C4 C2 B,^A, B,4- | B,2 A,G, A,2 B,A, G,6 G,2 | A,6 ^A,2 B,6 =A,2 | %18
 B,3 A, G,F,E,D, E,4 z4 | F,8 G,4 B,4 | A,4 G,4- G,2 F,4 ^E,2 | F,4 =D,4 C,8- | %22
 C,6 ^D,2 ^E,2 C,2 G,4 | F,4 G,2 C,2- C,2 ^B,,2 C,2 ^D,2 | E,2 F,E, D,4- D,4 E,2 F,2 | %25
 G,6 F,2 E,4 D,4 | E,4 z4 z8 | z4 B,4 C2 E2 D2 C2 | B,2 D2 C2 B,2 A,4 B,4 | B,6 A,2 G,6 C2 | %30
 F,2 D,2 E,2 F,2 G,2 B,2 C2 D2 | G,2 E,2 F,2 G,2 A,2 B,2 C4- | C2 C2 B,2 ^A,2 B,2 D2 C4 | %33
 B,6 ^A,G, =A,2[I:staff -1] B,2 ^C4 | B,4[I:staff +1] z4 E,8 | F,4 A,4 G,4 F,4 | E,4 z4 z4 z2 E,2 | %37
 D,2 B,2 C2 D2 EB, E4 D2- | DG, C4 B,2- B,E, A,4 G,2 | F,8 E,2 G,2 C2 F,2- | %40
 F,2 F,2 G,2 A,2 B,2 D,2 E,2 F,2 | G,4[I:staff -1] A,4 B,2[I:staff +1] z2 z2 z2 | %42
[I:staff -1] B,6 A,2[I:staff +1] G,8 |] %43
V:3
 x16 | G,4 F,4 E,2 D,C, D,2 B,,2 | E,2 F,2 G,2 ^A,2 B,F, B,4 =A,2- | A,2 G,F, G,4- G,4 F,4 | %4
 G,4 A,2 B,A, G,2 F,2 E,2 D,2 | C,8 B,,4 F,,4 | G,,6 E,,2 A,,6 F,,2 | B,,16- | B,,4 z4 z8 | %9
 z8 B,,8 | C,4 E,4 D,4 C,4 | B,,8 B,,4 A,,4 | G,,8 F,,2 G,,2 A,,2 B,,2 | C,2 G,,2 C,4- C,4 B,,4 | %14
 A,,8 G,,8 | C,4 z2 C,2 =D,6 ^D,2 | E,6 D,2 E,4 C,4 | F,4 E,4 D,4 C,4 | B,,8 C,4 E,4 | %19
 D,4 C,4 B,,2 G,,4 =A,,B,, | C,4 B,,4 A,,4 G,,4 | F,,4 B,,4 C,4 C,,4 | %22
 F,,2 G,,2 A,,2 F,,2 C,4 B,,2 C,2 | =D,2 C,2 ^B,,2 C,2 F,,2 G,,2 A,,4 | G,,8 ^A,,2 ^B,,2 C,4- | %25
 C,2 =B,,2 =A,,4 G,,8- | G,,4 F,,4 E,,2 C,,2 F,,4 | B,,4 z4 z4 F,4 | G,2 B,2 A,2 G,2 F,4 E,4 | %29
 B,4 B,,4 C,2 E,2 D,2 C,2 | D,2 B,,2 C,2 D,2 E,6 D,2 | E,2 C,2 D,2 ^E,2 F,6 E,2 | %32
 F,2 D,2 ^E,2 ^^F,2 G,6 ^^F,2 | G,4 ^E,4 D,4 D,,4 | G,,4 z4 z8 | z8 B,,8 | C,4 E,4 D,4 C,4 | %37
 B,,2 z2 z4 z8 | x16 | B,,8 C,4 E,4 | D,4 C,4 B,,4 A,,4 | G,,4 F,,4 E,,2 F,,2 G,,2 A,,2 | %42
 B,,8 !fermata!E,,8 |] %43
V:4
 x16 | x16 | x16 | x16 | G4 F4 E4 z2 B,2 | E2 F2 G2 ^A2 BF B4 =A2- | A2 GF G4 C6 DE | %7
 D4 E4- E2 D2 C4 | F,4 B,4 C4 E4 | D4 C4 B,2 E4 D2- | D2 C4 B,^A, B,2 F4 ED | E6 D2 C8 | %12
 B,2 C2 D2 E2 F2 C2 F4- | F4 E4 D8 | C2 D2 E2 F2 G4 F4 | E8 F4 A4 | G4 F4 E2 C2 G4- | %17
 G2 F^E F4- F2 =ED E2 FE | D6 G,2 A,6 ^A,2 | B,6 ^A,2 B,4 =D4 | C8- C4 G4 | C4 B,4 A,4 G,4 | %22
 A,2 B,2 C4- C4 D2 ^E2 | F6 ^E2 D4 C4- | C2 DC ^B,4 C2 D2 G,4 | D2 ED C2 A2 ^B,2 C4 B,2 | %26
 C4 D4 E2 G2 F2 E2 | D2 A2 G2 F2 E2 G2 F2 E2 | D2 E2 F2 G2 A6 G2 | F2 E2 F4 E8 | F4 A4 G4 F4 | %31
 E2 A4 G2 F2 =d2 c2 B2 | A2 ^^F2 G2 ^A2 G2 ^F2 E4 | D4 ^^C4 D8 | D4[I:staff +1] B,4 C4 D4 | %35
 D4 C4 B,4[I:staff -1] B4 | G2 E2 G2 ^A2 BF B4 =A2- | %37
 A2[I:staff +1] D2 E2 F2 G2[I:staff -1] c2 A2 B2 | G2 A2 F2 G2 E2 F2 D2 E2- | %39
 E2 DC D4 z2 EF G2 ^A2 | BF B4 A2- AD G4 F2- | FB, E4 D2 E2 z2 z2 E2 | E4 D4 B,8 |] %43

